!!!!SEGMENT: pl-cz--iii-573--001-007_rygall-ignacy--rorate-caeli-qui-nobis-tribuat.krn
!!!cenid: 18xx:1037
!!!COM: Rygall, Ignacy
!!!COM-rismID: pe30110281
!!!CDT: <1750->1799
!!!CNT:
!!!OPR: Rorate caeli
!!!OTL: Qui nobis tribuat
!!!OMV: 007
!!!PDT:
!!!AGN: Sacred
!!!SMS-siglum: PL-CZ
!!!SMS-shelfmark: III-573
!!!SMS-variant:
!!!SMS-altvar:
!!!SMS-shelfwork: 001-007 M
!!!NIFC-rismSourceID: 300001133
!!!NIFC-rismChildID: 300001133
!!!NIFC-islandoraID: pl-cz:39252
!!!URL-pdf-islandora: https://repozytorium.nifc.pl/islandora/object/pl-cz%3A39252/datastream/PDF/view
!!!URL-scan: https://polish.musicsources.pl/pl/lokalizacje/galeria/rekopisy/6955/1 @EN{Scan on Polish Music Sources Website} @PL{Skany w portalu Dziedzictwo Muzyki Polskiej w otwartym dostępie}
!!!IIIF:
!!!ONB-nifc: UWAGA: części Rorate caeli: Intonatio, Benedixisti Domine, Mittit ad virginem,
!!!AIN: 1 alto 1 bass 1 cor 1 empty 2 oboe 1 organ 1 soprn 1 tenor 1 timpa 2 viola 3 violn
!!!key: G
**kern	**kern	**kern	**kern	**kern	**kern	**kern	**text	**kern	**text	**kern	**text	**kern	**text	**kern	**kern	**kern	**kern	**kern
*part15	*part14	*part13	*part12	*part11	*part10	*part9	*part9	*part8	*part8	*part7	*part7	*part6	*part6	*part5	*part4	*part3	*part2	*part1
*staff15	*staff14	*staff13	*staff12	*staff11	*staff10	*staff9	*staff9	*staff8	*staff8	*staff7	*staff7	*staff6	*staff6	*staff5	*staff4	*staff3	*staff2	*staff1
*Iorgan	*Iviola	*Iviola	*Ivioln	*Ivioln	*Ivioln	*Ibass	*	*Itenor	*	*Ialto	*	*Isoprn	*	*Itimpa	*Icor	*Iempty	*Ioboe	*Ioboe
*I"Organo	*I"Viola 2da.	*I"Alto Viola Prima.	*I"Violino Graſso	*I"Violino Secondo.	*I"Violino Primo.	*I"Baſso	*	*I"Tenore	*	*I"Alto.	*	*I"Soprano	*	*I"Tympano in D: A.	*I"Corno 2do in G.	*I"Corno 1mo in G.	*I"Oboe	*I"Oboe 1mo
*I'org	*I'vla 2	*I'a-vla 1	*I'vl grosso	*I'vl 2	*I'vl 1	*I'B	*	*I'T	*	*I'A	*	*I'S	*	*I'timp	*I'cor 2	*I'cor 1	*I'ob 2	*I'ob 1
*ICklav	*ICsttr	*ICstr	*ICstr	*ICstr	*ICstr	*ICvox	*	*ICvox	*	*ICvox	*	*ICvox	*	*ICidio	*ICbras	*ICbras	*ICww	*ICww
*	*	*	*	*	*	*IGcoro	*	*IGcoro	*	*IGcoro	*	*IGcoro	*	*	*	*	*	*
*	*mI"Viola II	*mI"Viola I	*mI"Violino grosso	*mI"Violino II	*mI"Violino I	*mI"Basso	*	*	*	*mI"Alto	*	*	*	*mI"Timpani in D. A. 	*mI"Corno II in G	*mI"Corno I in G	*mI"Oboe II	*mI"Oboe I
*clefF4	*clefC3	*clefC3	*clefC3	*clefG2	*clefG2	*clefF4	*	*clefC4	*	*clefC3	*	*clefC1	*	*clefF4	*clefG2	*clefG2	*clefG2	*clefG2
*	*	*	*	*	*	*	*	*mclefGv2	*	*mclefG2	*	*mclefG2	*	*	*	*	*	*
*	*	*	*	*	*	*	*	*	*	*	*	*	*	*	*ITrd3c5	*ITrd3c5	*	*
*k[f#]	*k[f#]	*k[f#]	*k[f#]	*k[f#]	*k[f#]	*k[f#]	*	*k[f#]	*	*k[f#]	*	*k[f#]	*	*k[f#]	*k[f#]	*k[f#]	*k[f#]	*k[f#]
*G:	*G:	*G:	*G:	*G:	*G:	*G:	*	*G:	*	*G:	*	*G:	*	*G:	*G:	*G:	*G:	*G:
*M3/4	*M3/4	*M3/4	*M3/4	*M3/4	*M3/4	*M3/4	*	*M3/4	*	*M3/4	*	*M3/4	*	*M3/4	*M3/4	*M3/4	*M3/4	*M3/4
*	*	*	*tacet	*	*	*	*	*	*	*	*	*	*	*tacet	*	*	*	*
=1	=1	=1	=1	=1	=1	=1	=1	=1	=1	=1	=1	=1	=1	=1	=1	=1	=1	=1
!	!	!LO:MO:mod=*null:null	!	!	!	!	!	!	!	!	!	!	!	!	!LO:MO:mod=*null:null	!LO:MO:mod=*null:null	!LO:MO:mod=*null:null	!LO:MO:mod=*null:null
*	*	*2\right	*	*	*	*	*	*	*	*	*	*	*	*	*2\right	*2\right	*2\right	*2\right
!	!	!	!LO:TX:t=P:problem=brak głosu w tej części	!LO:TX:a:t=Qui nobis tribuat.:mod=	!LO:TX:a:t=Qui nobis tribuat:mod=	!	!LO:MO:mod=Qui	!	!LO:MO:mod=Qui	!	!LO:MO:mod=Qui	!	!LO:MO:mod=Qui	!LO:TX:t=P:problem=brak głosu w tej części	!:global	!:global	!:global	!:global
8B\L	2g\	2dd\	2.ryy	4b\	4ddd\	4B\	qui	4B\	qui	4g\	qui	4dd\	qui	2.ryy	2g\	2dd\	2.ffn\	2bb\
8G\	.	.	.	.	.	.	.	.	.	.	.	.	.	.	.	.	.	.
8B\	.	.	.	4dd\	4ffn\	4G\	no-	4B\	no-	4g\	no-	4dd\	no-	.	.	.	.	.
8G\	.	.	.	.	.	.	.	.	.	.	.	.	.	.	.	.	.	.
8B\	4g\	4dd\	.	4dd\	4ff\	4B\	-bis	4d\	-bis	4g\	-bis	4ffn\	-bis	.	4g\	4dd\	.	4bb\
8G\J	.	.	.	.	.	.	.	.	.	.	.	.	.	.	.	.	.	.
=2	=2	=2	=2	=2	=2	=2	=2	=2	=2	=2	=2	=2	=2	=2	=2	=2	=2	=2
!	!	!	!	!	!	!LO:MO:mod=!null:null	!	!	!	!	!	!	!	!	!	!	!	!
!	!	!	!	!	!	!LO:N:vis=16	!	!	!	!	!	!LO:SIC:v:s=8ffL	!	!	!	!	!	!
!	!	!	!	!	!	!LO:SIC:s=8cL	!	!	!	!	!	!	!	!	!	!	!	!
8c\L	4g\	4ee\	2.ryy	4dd\	4ff#\	8c\	tri-	8d\L	tri-	8g\L	Tri-	8ff#\L	tri-	2.ryy	4g\	2ee\	4ee\	4ccc\
!	!	!	!	!	!	!LO:MO:mod=!null:null	!	!	!	!	!	!	!	!	!	!	!	!
!	!	!	!	!	!	!LO:N:vis=16	!	!	!	!	!	!	!	!	!	!	!	!
!	!	!	!	!	!	!LO:SIC:s=8CJ	!	!	!	!	!	!	!	!	!	!	!	!
8G\	.	.	.	.	.	8C/	-bu-	8c\J	-bu-	8g\J	-bu-	8ee\J	-bu-	.	.	.	.	.
8c\	4g\	4ee\	.	4cc\	4ee\	4C/	-at	4c\	-at	4g\	-at	4ee\	-at	.	4g\	.	4ee\	4ccc\
8G\	.	.	.	.	.	.	.	.	.	.	.	.	.	.	.	.	.	.
8c\	4r	4r	.	4r	4r	4r	.	4r	.	4r	.	4r	.	.	4r	4r	4r	4r
8G\J	.	.	.	.	.	.	.	.	.	.	.	.	.	.	.	.	.	.
!	!	!LO:LB:g=original	!	!	!	!LO:LB:g=original	!	!	!	!	!	!	!	!	!	!	!	!
=3	=3	=3	=3	=3	=3	=3	=3	=3	=3	=3	=3	=3	=3	=3	=3	=3	=3	=3
!	!	!	!	!LO:SIC:v:s=4cc#	!	!	!	!	!	!	!	!	!	!	!	!	!	!
8c#X\L	2a\	2ee\	2.ryy	4cc\	4ee\	4c#X\	pec-	4c#X\	pec-	4a\	pec-	4ee\	pec-	2.ryy	2a\	2ee\	2.gg\	2ccc#X\
8A\	.	.	.	.	.	.	.	.	.	.	.	.	.	.	.	.	.	.
8c#\	.	.	.	4ee\	4gg\	4A\	-ca-	4c#\	-ca-	4a\	-ca-	4ee\	-ca-	.	.	.	.	.
8A\	.	.	.	.	.	.	.	.	.	.	.	.	.	.	.	.	.	.
8c#\	4a\	4ee\	.	4ee\	4gg\	4c#\	-ti	4e\	-ti	4a\	-ti	4gg\	-ti	.	4a\	4ee\	.	4ccc#\
8A\J	.	.	.	.	.	.	.	.	.	.	.	.	.	.	.	.	.	.
!LO:LB:g=original	!	!	!	!	!	!	!	!	!	!	!	!	!	!	!	!	!	!
=4	=4	=4	=4	=4	=4	=4	=4	=4	=4	=4	=4	=4	=4	=4	=4	=4	=4	=4
!	!	!LO:TX:a:t=1.:mod=	!	!	!	!LO:SIC:s=8dL	!	!	!	!	!	!LO:SIC:s=8ggL	!	!	!LO:TX:a:t=1.:mod=	!LO:TX:a:t=1.:mod=	!	!
8d\L	2.r	2.r	2.ryy	4ee\	4gg\	8d\	ve-	8e\L	ve-	8a\L	ve-	8gg\	ve-	2.ryy	2.r	2.r	4ff#\	4ddd\
!	!	!	!	!	!	!LO:SIC:s=8DJ	!	!	!	!	!	!LO:SIC:s=8ff#J	!	!	!	!	!	!
8A\	.	.	.	.	.	8D\	-ni-	8d\J	-ni-	8a\J	-ni-	8ff#\	-ni-	.	.	.	.	.
8d\	.	.	.	4dd\	4ff#\	4D\	-am	4d\	-am	4a\	-am	4ff#\	-am	.	.	.	4ff#\	4ddd\
8A\	.	.	.	.	.	.	.	.	.	.	.	.	.	.	.	.	.	.
8d\	.	.	.	4r	4r	4r	.	4r	.	4r	.	4r	.	.	.	.	4r	4r
8A\J	.	.	.	.	.	.	.	.	.	.	.	.	.	.	.	.	.	.
=5	=5	=5	=5	=5	=5	=5	=5	=5	=5	=5	=5	=5	=5	=5	=5	=5	=5	=5
!	!	!	!	!LO:N:vis=00	!LO:N:vis=00	!LO:N:vis=00	!	!LO:N:vis=00	!	!	!	!	!	!	!	!	!LO:N:vis=00	!LO:N:vis=00
4GG/	4r	4r	2.ryy	0.r	0.r	0.r	.	0.r	.	4b\	re-	4gg\	re-	2.ryy	4r	4r	0.r	0.r
4BB/	4b\	4dd\	.	.	.	.	.	.	.	4b\	-a-	4dd\	-a-	.	4b\	4dd\	.	.
4D\	4b\	4dd\	.	.	.	.	.	.	.	4b\	-tus	4dd\	-tus	.	4b\	4dd\	.	.
!	!	!	!	!	!	!	!	!	!	!	!	!LO:LB:g=original	!	!	!	!	!	!
=6	=6	=6	=6	=6	=6	=6	=6	=6	=6	=6	=6	=6	=6	=6	=6	=6	=6	=6
!LO:MO:mod=*null:null	!	!	!	!	!	!	!	!	!	!	!	!	!	!	!	!	!	!
*2\right	*	*	*	*	*	*	*	*	*	*	*	*	*	*	*	*	*	*
2G\	4.b\	4.dd\	2.ryy	.	.	.	.	.	.	4.b\	de-	4.dd\	de-	2.ryy	4.b\	4.dd\	.	.
.	8cc\	8ee\	.	.	.	.	.	.	.	8cc\	-le-	8ee\	-le-	.	8cc\	8ee\	.	.
4r	4b\	4dd\	.	.	.	.	.	.	.	4b\	-at	4dd\	-at	.	4b\	4dd\	.	.
=7	=7	=7	=7	=7	=7	=7	=7	=7	=7	=7	=7	=7	=7	=7	=7	=7	=7	=7
4GG/	4b\	4dd\	2.ryy	.	.	.	.	.	.	4b\	et	4dd\	et	2.ryy	4b\	4dd\	.	.
!	!	!	!	!	!	!	!	!	!	!	!	!	!	!	!	!LO:SIC:v:s=4b	!	!
4BB/	4g\	4b\	.	.	.	.	.	.	.	4g\	do-	4b\	do-	.	4g\	4cc\	.	.
4D\	4g\	4b\	.	.	.	.	.	.	.	4g\	-net	4b\	-net	.	4g\	4b\	.	.
=8	=8	=8	=8	=8	=8	=8	=8	=8	=8	=8	=8	=8	=8	=8	=8	=8	=8	=8
4G\	4.g\	4.b\	2.ryy	.	.	.	.	.	.	4.g\	Pa-	4.b\	Pa-	2.ryy	4.g\	4.b\	.	.
4r	.	.	.	.	.	.	.	.	.	.	.	.	.	.	.	.	.	.
.	8a\	8cc\	.	.	.	.	.	.	.	8a\	-tri-	8cc\	-tri-	.	8a\	8cc\	.	.
4r	4g\	4b\	.	.	.	.	.	.	.	8g\	-am	8b\	-am	.	4g\	4b\	.	.
.	.	.	.	.	.	.	.	.	.	8a\	in	8cc\	in	.	.	.	.	.
!	!	!	!	!	!	!	!	!	!	!LO:LB:g=original	!	!	!	!	!	!	!	!
=9	=9	=9	=9	=9	=9	=9	=9	=9	=9	=9	=9	=9	=9	=9	=9	=9	=9	=9
!	!	!	!	!	!	!	!LO:MO:mod=Si-	!	!	!LO:SIC:s=8bL	!	!	!	!	!	!	!	!
8B\L	4a\	4cc\	2.ryy	8b\L	8dd\L	8B\L	si-	4r	.	8b\	ar-	8dd\L	ar-	2.ryy	4a\	4cc\	4cc\	4aa\
!	!	!	!	!	!	!	!	!	!	!LO:SIC:s=8aJ	!	!	!	!	!	!	!	!
8c\J	.	.	.	8a\J	8cc\J	8c\J	.	.	.	8a\	-ce	8cc\J	-ce	.	.	.	.	.
4d\	4g\	4b\	.	4g\	4b\	4d\	.	4d\	Si-	4g\	Si-	4b\	Si-	.	4g\	4b\	4b\	4gg\
4D\	4d\	4a\	.	4f#\	4a\	4D\	-de-	4d\	-de-	4f#\	-de-	4a\	-de-	.	4d\	4a\	4a\	4ff#\
=10	=10	=10	=10	=10	=10	=10	=10	=10	=10	=10	=10	=10	=10	=10	=10	=10	=10	=10
!	!	!	!	!	!	!LO:MO:mod=*null:null	!	!	!	!	!	!	!	!	!	!	!	!
*	*	*	*	*	*	*2\right	*	*	*	*	*	*	*	*	*	*	*	*
2G\	4B/	4g\	2.ryy	4B/	4g/	2G\	-rum	4d\	-rum	4g\	-rum	4g\	-rum	2.ryy	4B/	4g\	4b\	4gg\
.	4r	4r	.	8ee\L	8gg\L	.	.	4r	.	4r	.	4r	.	.	4r	4r	4r	4r
.	.	.	.	8dd\	8ff#\	.	.	.	.	.	.	.	.	.	.	.	.	.
4r	4r	4r	.	8cc\	8ee\	4r	.	4r	.	4r	.	4r	.	.	4r	4r	4r	4r
.	.	.	.	8b\J	8dd\J	.	.	.	.	.	.	.	.	.	.	.	.	.
!	!	!	!	!LO:LB:g=original	!LO:LB:g=original	!	!	!LO:LB:g=original	!	!	!	!	!	!	!	!	!LO:LB:g=original	!
=11	=11	=11	=11	=11	=11	=11	=11	=11	=11	=11	=11	=11	=11	=11	=11	=11	=11	=11
!	!	!	!	!	!	!	!LO:MO:mod=Si-	!	!	!	!	!	!	!	!	!	!	!
4C/	4a\	4cc\	2.ryy	4a/	4cc\	4c\	si-	4r	.	4a\	Si-	4cc\	Si-	2.ryy	4a\	4cc\	4cc\	4aa\
4D/	4g\	4b\	.	4g/	4b\	4d\	.	4d\	Si-	4g\	.	4b\	.	.	4g\	4b\	4b\	4gg\
4D/	4d\	4a\	.	4f#/	4a\	4D\	-de-	4d\	-de-	4d\	-de-	4a\	-de-	.	4d\	4a\	4a\	4ff#\
=12	=12	=12	=12	=12	=12	=12	=12	=12	=12	=12	=12	=12	=12	=12	=12	=12	=12	=12
4GG/	4B/	4g\	2.ryy	4B/	4g/	2G\	-rum	4d\	-rum	2B/	-rum	4g\	-rum	2.ryy	4B/	4g\	4b\	4gg\
4r	4r	4r	.	8ee\L	8gg\L	.	.	4r	.	.	.	4r	.	.	4r	4r	4r	4r
.	.	.	.	8dd\	8ff#\J	.	.	.	.	.	.	.	.	.	.	.	.	.
4r	4r	4r	.	8cc\	8ee\L	4r	.	4r	.	4r	.	4r	.	.	4r	4r	4r	4r
.	.	.	.	8b\J	8dd\J	.	.	.	.	.	.	.	.	.	.	.	.	.
!	!LO:LB:g=original	!	!	!	!	!	!	!	!	!	!	!	!	!	!LO:LB:g=original	!	!	!LO:LB:g=original
=13	=13	=13	=13	=13	=13	=13	=13	=13	=13	=13	=13	=13	=13	=13	=13	=13	=13	=13
!	!	!	!	!	!	!	!	!LO:TX:t=P:problem=t. 13-14 zapisane jako repetycja:mod=	!	!	!	!	!	!	!	!	!	!
!	!	!	!	!	!	!	!LO:MO:mod=Si-	!LO:MO:mod=4r	!	!	!	!	!	!	!	!	!	!
4c\	4a\	4cc\	2.ryy	4a/	4cc\	4c\	si-	4ryy	.	4a\	Si-	4cc\	Si-	2.ryy	4a\	4cc\	4cc\	4aa\
!	!	!	!	!	!	!	!	!LO:MO:mod=4d	!	!	!	!	!	!	!	!	!	!
4d\	4g\	4b\	.	4g/	4b\	4d\	.	4d\yy	Si-	4g\	.	4b\	.	.	4g\	4b\	4b\	4gg\
!	!	!	!	!	!	!	!	!LO:MO:mod=4d	!	!	!	!	!	!	!	!	!	!
4D\	4d\	4a\	.	4f#/	4a\	4D\	-de-	4d\yy	-de-	4d\	-de-	4a\	-de-	.	4d\	4a\	4a\	4ff#\
!LO:LB:g=original	!	!	!	!	!	!	!	!	!	!	!	!LO:LB:g=original	!	!	!	!	!	!
=14	=14	=14	=14	=14	=14	=14	=14	=14	=14	=14	=14	=14	=14	=14	=14	=14	=14	=14
!	!	!	!	!	!	!	!	!	!	!	!	!LO:MO:mod=*null:null	!	!	!	!	!	!
*	*	*	*	*	*	*	*	*	*	*	*	*2\right	*	*	*	*	*	*
!	!LO:MO:mod=2B	!LO:MO:mod=2g	!	!	!	!	!	!LO:MO:mod=2d	!	!	!	!	!	!	!	!	!	!
4G\	4B/	4g\	2.ryy	2B/	2g/	2G\	-rum	4d\yy	-rum	2B/	-rum	2g\	-rum	2.ryy	4B/	4g\	2b\	2gg\
!	!LO:MO:mod=.	!LO:MO:mod=.	!	!	!	!	!	!LO:MO:mod=.	!	!	!	!	!	!	!	!	!	!
4D\	4ryy	4r	.	.	.	.	.	4ryy	.	.	.	.	.	.	4r	4r	.	.
!	!LO:MO:mod=4r	!	!	!	!	!	!	!LO:MO:mod=4r	!	!	!	!	!	!	!	!	!	!
4GG/	4ryy	4r	.	4r	4r	4r	.	4ryy	.	4r	.	4r	.	.	4r	4r	4r	4r
==	==	==	==	==	==	==	==	==	==	==	==	==	==	==	==	==	==	==
*-	*-	*-	*-	*-	*-	*-	*-	*-	*-	*-	*-	*-	*-	*-	*-	*-	*-	*-
!!!system-decoration: [(s1,s2)][(s3,s4)]s5[(s6,s7,s8,s9)][(s10,s11,s12,s13,s14)]s15
!!!filter-modern: sic -sq | modori -m | shed -e "s/LO:DY:(a|b|rj)/LO:dy:$1/L" | autostem -r | tie -s | humtr -p
!!!ENC: Marcin Jachim
!!!END: 2020-10-05
!!!ENC: Leszek Kubiak
!!!END: 2021-11-18
!!!ENC-modern: Andrzej Borzym
!!!END-modern: 2022-06-14
!!!YEC: Copyright 2022 Narodowy Instytut Fryderyka Chopina (https://polishscores.org)
!!!YEM: License CC-BY-4.0 (https://creativecommons.org/licenses/by/4.0)
